src/basic/900/u25A1-square.svg

<svg width="8" height="8" viewBox="0 0 8 8" fill="none" xmlns="http://www.w3.org/2000/svg">
<path fill-rule="evenodd" clip-rule="evenodd" d="M0.959363 0.959381H1.45936H6.52141H7.02141V1.45938V6.52142V7.02142H6.52141H1.45936H0.959363V6.52142V1.45938V0.959381ZM1.95936 1.95938V6.02142H6.02141V1.95938H1.95936Z" fill="black"/>
</svg>

<svg width="8" height="8" viewBox="0 0 8 8" fill="none" xmlns="http://www.w3.org/2000/svg">
<path fill-rule="evenodd" clip-rule="evenodd" d="M0.95936,0.95938h0.5h5.06205h0.5v0.5v5.06204v0.5h-0.5h-5.06205h-0.5v-0.5v-5.06204zM1.95936,1.95938v4.06204h4.06205v-4.06204z" fill="black"/>
</svg>
